**kern	**kern	**dynam
*part1	*part1	*part1
*staff2	*staff1	*
*I"Piano	*	*
*clefF4	*clefG2	*
*k[]	*k[]	*
=1	=1	=1
4AA	4cc 4ee 4aa	.
4r	4r	.
4E^^	4g#X^^ 4b 4ee	f
=	=	=
4FF^^ 4F	4a^^ 4cc 4ff	.
4r	4r	.
4CC^^ 4C	4f^^ 4b-X 4dd	.
=	=	=
4FF^^ 4F	4a^^ 4cc 4ff	.
4r	4r	.
4CC^^ 4C	4f^^ 4b-X 4dd	.
=	=	=
4FF^^ 4F	4a^^ 4cc 4ff	.
4r	4r	.
4CC^^ 4C	4f^^ 4b-X 4dd	>
=	=	=
4FF^^ 4F	4a^^ 4cc 4ff	.
4r	4r	.
4CC 4C	4f 4b-X 4dd	.
=	=	=
4FF 4F	4a 4cc 4ff	] p
4r	4r	.
4CC 4C	4f 4b-X 4dd	.
=	=	=
4FF 4F	4e 4b-X 4cc	.
4r	4r	.
4CC 4C	4e 4b- 4cc	.
=	=	=
4FF 4F	4e 4b-X 4dd	.
4r	4r	.
4CC 4C	4e 4b- 4cc	.
=	=	=
*-	*-	*-
!!!system-decoration: {(s1,s2)}
